shared/images/iconfont/1-kb-iconfont-add-16.svg

<?xml version="1.0" encoding="UTF-8"?>
<svg width="16px" height="16px" viewBox="0 0 16 16" version="1.1" xmlns="http://www.w3.org/2000/svg" xmlns:xlink="http://www.w3.org/1999/xlink">
    <!-- Generator: sketchtool 57.1 (101010) - https://sketch.com -->
    <title>5CDA8F2F-9922-498A-8D0A-C53D062220F8</title>
    <desc>Created with sketchtool.</desc>
    <g id="Symbols" stroke="none" stroke-width="1" fill="none" fill-rule="evenodd">
        <g id="1-kb-iconfont-add-16">
            <g>
                <rect id="icon-area" opacity="0" x="0" y="0" width="16" height="16"></rect>
                <path d="M8,0 C12.3349143,0 15.8645429,3.45649202 15.9961932,7.75131053 L16,8 C16,12.3349143 12.543508,15.8645429 8.24868947,15.9961932 L8,16 C3.581722,16 0,12.4092877 0,8 C0,3.66508574 3.45649202,0.135457134 7.75131053,0.00380682464 L8,0 Z M8,3.75 C7.53055796,3.75 7.15,4.13055796 7.15,4.6 L7.15,7.15 L4.6,7.15 C4.13055796,7.15 3.75,7.53055796 3.75,8 C3.75,8.46944204 4.13055796,8.85 4.6,8.85 L7.15,8.85 L7.15,11.4 C7.15,11.869442 7.53055796,12.25 8,12.25 C8.46944204,12.25 8.85,11.869442 8.85,11.4 L8.85,8.85 L11.4,8.85 C11.869442,8.85 12.25,8.46944204 12.25,8 C12.25,7.53055796 11.869442,7.15 11.4,7.15 L8.85,7.15 L8.85,4.6 C8.85,4.13055796 8.46944204,3.75 8,3.75 Z" id="Combined-Shape" fill="#000000"></path>
            </g>
        </g>
    </g>
</svg>

<svg xmlns="http://www.w3.org/2000/svg" width="16" height="16" viewBox="0 0 16 16">
    <path fill="#000" fill-rule="evenodd" d="M8 0c4.335 0 7.865 3.456 7.996 7.751L16 8c0 4.335-3.456 7.865-7.751 7.996L8 16c-4.418 0-8-3.59-8-8C0 3.665 3.456.135 7.751.004L8 0zm0 3.75a.85.85 0 0 0-.85.85v2.55H4.6a.85.85 0 1 0 0 1.7h2.55v2.55a.85.85 0 0 0 1.7 0V8.85h2.55a.85.85 0 0 0 0-1.7H8.85V4.6A.85.85 0 0 0 8 3.75z"/>
</svg>
